X:1
T:Väntanpolska, mellanspel
R:Polska
C:Anton Teljebäck
Z:Anton Teljebäck
M:3/4
L:1/4
K:Em
| B3 | B3 | c3 | c2B | A3 | A2G | (G(3G)AG | F3 |
| B3 | B3 | c3 | c3 | d3 | c2B | BcB | G2E ||

